!!!OTL: Fangfengzheng
!!!ARE: Asia, China,ÿHeilongjiang, Zhaodong
!! III, 61
!!!SCT: C1546
!!!YEM: Copyright 1995, estate of Helmut Schaffrath.
**kern
*ICvox
*Ivox
*M2/4
*k[f#c#g#d#]
*E:
{4b
8b
8cc#
=1
2ee
=2
8ff#
8ee
8dd#
8cc#
=3
2b}
=4
{4b
8b
8cc#
=5
2ee
=6
8ff#
8ee
8dd#
8cc#
=7
2b}
=8
{4b
8b
8cc#
=9
4ee
8ee
8cc#
=10
8b
8b
8ee
8cc#
=11
4.b
8g#}
=12
{8f#
8g#
8f#
8e
=13
8c#
8e
8f#
8g#
=14
4.e
8f#
=15
2e}
=16
{8cc#
8ee
8cc#
8b
=17
8cc#
8ee
8cc#
8b
=18
8a
8b
8a
8b
=19
4.a
8b
=20
4.a
8b}
=21
{8f#
8g#
8f#
8e
=22
8c#
8e
8f#
8g#
=23
4.e
8f#
=24
2e}
==
!!!AGN: Xiaodiao, Jiandianhua diao
!!!AMT: simple duple
!!!AIN: vox
!!!EED: Helmut Schaffrath
!!!EEV: 1.0
*-
